X: 461
P: Longways for as many as will
M: 6/4
L: 1/4
K: Dm
d2e fcA | GAF c2A | def efd | a3- a2 |][| a | bag a2e | fed g2a |\
f>ef g/f/ed | ^c3- c2A | AGF E2D | D2d ^c2d | eAf e2d | d3- d2 |]

